FINK
CUT[WIE SCHOEN ISTS IM FREIEN]
REG[Europa, Mitteleuropa, Deutschland]
KEY[F0262  16  A 3/8]
MEL[-5_  1_-7_1_  2_1_
    -5_  3_2_3_  4_3_
    3_  5_4_3_  2__3_  2__
    2_  -7_-7_1_  3_2_0
    2  3_3_4_  6_5_0
    5  5_3_2_  1__2_  1__ //] >>
FCT[Jugend - Lied, Belehrung, Natur]
